X: 17753
T: Hommage à Edmond Parizeau
R: reel
M: 4/4
K: Amajor
ABcd|:eAAe AAeA|AeAA efed|ceAc BAeA|ceAc dddc|
B2 BB BA B/c/d|eede cccB|Afed cdBc|1 A2 ~A2 ABcd:|2 A2 ~A2 ABce||
|:a4 f4|d3d defd|eece afec|ABBA BcAc|
B2 BB BA B/c/d|eede cccB|Afed cdBc|1 A2 ~A2 ABce:|2 A2 ~A2||

